@extra/icons/0nyX/symbolic/gnome-netstatus-error.svg

<?xml version="1.0" encoding="UTF-8" standalone="no"?>
<svg xmlns="http://www.w3.org/2000/svg" version="1.1" viewBox="0 0 16 16">
 <path opacity=".5" style="text-decoration-line:none;text-transform:none;text-indent:0" font-family="Sans" d="m5 7c-0.31 0-0.615 0.09-0.812 0.281l-3.594 3.719 3.656 3.719c0.198 0.19 0.44 0.281 0.75 0.281h1v-1c0-0.257-0.13-0.529-0.312-0.719l-1.282-1.281h3.625c0.022-0.277 0.113-1 0.723-2h-4.379l1.219-1.281c0.183-0.19 0.406-0.462 0.406-0.719v-1z" overflow="visible" font-weight="400" fill="#f1f2f2"/>
 <path opacity=".5" style="text-decoration-line:none;text-transform:none;text-indent:0" font-family="Sans" d="m12.48 8.031l2.926-3.031-3.656-3.719c-0.198-0.19-0.44-0.281-0.75-0.281h-1v1c0 0.257 0.13 0.529 0.313 0.719l1.28 1.281h-4.593c-0.528-0.007-1 0.472-1 1s0.472 1.007 1 1h4.625l-1.219 1.281c-0.182 0.19-0.406 0.462-0.406 0.719v0.426c0.62-0.377 1.909-0.507 2.48-0.395z" overflow="visible" font-weight="400" fill="#f1f2f2"/>
 <circle cx="11.5" cy="11.5" r="4.5" fill="#333"/>
 <path style="color:#f1f2f2" d="m11.5 8a3.5 3.5 0 1 0 0 7 3.5 3.5 0 0 0 0 -7zm-2.5 2.969h5v1.031h-5z" class="error" overflow="visible" fill="#c00"/>
</svg>

<svg xmlns="http://www.w3.org/2000/svg" viewBox="0 0 16 16">
    <path style="line-height:normal;-inkscape-font-specification:Sans;text-indent:0;text-align:start;text-decoration-line:none;text-transform:none;marker:none" d="M5 7c-.31 0-.615.09-.812.281L.594 11l3.656 3.719c.198.19.44.281.75.281h1v-1c0-.257-.13-.529-.312-.719L4.406 12h3.625c.022-.277.113-1 .723-2H4.375l1.219-1.281C5.777 8.529 6 8.257 6 8V7z" color="#000" font-weight="400" font-family="Sans" overflow="visible" opacity=".5" fill="#f1f2f2"/>
    <path style="marker:none" d="M12.5 9a3.5 3.5 0 1 0 0 7 3.5 3.5 0 0 0 0-7zM10 11.969h5V13h-5z" class="error" color="#f1f2f2" overflow="visible" fill="#c00"/>
    <path style="line-height:normal;-inkscape-font-specification:Sans;text-indent:0;text-align:start;text-decoration-line:none;text-transform:none;marker:none" d="M12.48 8.031L15.406 5 11.75 1.281C11.552 1.091 11.31 1 11 1h-1v1c0 .257.13.529.313.719L11.593 4H7c-.528-.007-1 .472-1 1s.472 1.007 1 1h4.625l-1.219 1.281c-.182.19-.406.462-.406.719v.426c.62-.377 1.909-.507 2.48-.395z" color="#000" font-weight="400" font-family="Sans" overflow="visible" opacity=".5" fill="#f1f2f2"/>
</svg>
